Adwaita++/apps/16/gnome-window-manager.svg

<svg height="16" width="16" xmlns="http://www.w3.org/2000/svg">
  <g fill="#444">
    <path d="m1.867188 6.1249999c-.753463 0-1.367188.63545-1.367188 1.3867187v6.6015624c0 .751269.613731 1.386719 1.367188 1.386719h7.265624c.753457 0 1.367188-.635444 1.367188-1.386719v-6.6015624c0-.7512749-.613725-1.3867187-1.367188-1.3867187zm0 1.25h7.265624c.07675 0 .117188.050562.117188.1367187v6.6015624c0 .08615-.04043.136719-.117188.136719h-7.265624c-.07675 0-.117188-.05056-.117188-.136719v-6.6015624c0-.086156.04044-.1367187.117188-.1367187z"/>
    <path d="m6.8671875.625c-.753463 0-1.3671875.63545-1.3671875 1.3867188v2.8164062h4.904297c.753463 0 1.367187.6354438 1.367187 1.3867188v3.7851562h2.361328c.753457 0 1.367188-.635444 1.367188-1.3867188v-6.6015624c0-.7512749-.613725-1.3867188-1.367188-1.3867188z"/>
  </g>
</svg>

<svg xmlns="http://www.w3.org/2000/svg" width="16" height="16" version="1.1">
 <path fill="#444" d="M 1.867188,6.1249999 C 1.113725,6.1249999 0.5,6.7604499 0.5,7.5117186 V 14.113281 C 0.5,14.86455 1.113731,15.5 1.867188,15.5 H 9.132812 C 9.886269,15.5 10.5,14.864556 10.5,14.113281 V 7.5117186 C 10.5,6.7604437 9.886275,6.1249999 9.132812,6.1249999 Z m 0,1.25 h 7.265624 c 0.07675,0 0.117188,0.050562 0.117188,0.1367187 V 14.113281 C 9.25,14.199431 9.20957,14.25 9.132812,14.25 H 1.867188 C 1.790438,14.25 1.75,14.19944 1.75,14.113281 V 7.5117186 c 0,-0.086156 0.04044,-0.1367187 0.117188,-0.1367187 z"/>
 <path fill="#444" d="M 6.8671875,0.625 C 6.1137245,0.625 5.5,1.26045 5.5,2.0117188 V 4.828125 h 4.904297 c 0.753463,0 1.367187,0.6354438 1.367187,1.3867188 V 10 h 2.361328 C 14.886269,10 15.5,9.364556 15.5,8.6132812 V 2.0117188 C 15.5,1.2604439 14.886275,0.625 14.132812,0.625 Z"/>
</svg>
